X:17698
T:Tour
C:RR Tab
M:4/4
L:1/8
K:C
ABcB A2 AG|ABcB A2 AG|\
ABcB A3 A|1 GAGF E4:|2 G2GA E3E||
|:ABcB A3 A|GEFE D2D2|\
ABcB A3 A|G2GA D4:| 


